icons/outline/speaker-wave.svg

<svg width="24" height="24" viewBox="0 0 24 24" fill="none" xmlns="http://www.w3.org/2000/svg">
<path d="M19.114 5.63591C22.6287 9.15063 22.6287 14.8491 19.114 18.3638M16.4626 8.28765C18.5129 10.3379 18.5129 13.662 16.4626 15.7123M6.75 8.24993L11.4697 3.53026C11.9421 3.05778 12.75 3.39241 12.75 4.06059V19.9393C12.75 20.6074 11.9421 20.9421 11.4697 20.4696L6.75 15.7499H4.50905C3.62971 15.7499 2.8059 15.2435 2.57237 14.3957C2.36224 13.6329 2.25 12.8295 2.25 11.9999C2.25 11.1703 2.36224 10.367 2.57237 9.60416C2.8059 8.7564 3.62971 8.24993 4.50905 8.24993H6.75Z" stroke="#0F172A" stroke-width="1.5" stroke-linecap="round" stroke-linejoin="round"/>
</svg>

<svg xmlns="http://www.w3.org/2000/svg" fill="none" viewBox="0 0 24 24" stroke-width="1.5" stroke="currentColor" aria-hidden="true" data-slot="icon">
  <path stroke-linecap="round" stroke-linejoin="round" d="M19.114 5.636a9 9 0 0 1 0 12.728M16.463 8.288a5.25 5.25 0 0 1 0 7.424M6.75 8.25l4.72-4.72a.75.75 0 0 1 1.28.53v15.88a.75.75 0 0 1-1.28.53l-4.72-4.72H4.51c-.88 0-1.704-.507-1.938-1.354A9.009 9.009 0 0 1 2.25 12c0-.83.112-1.633.322-2.396C2.806 8.756 3.63 8.25 4.51 8.25H6.75Z"/>
</svg>
